X:1
T:Title
%%score { ( 1 4 ) | ( 2 3 ) }
L:1/8
M:6/8
K:Ab
V:1 treble nm="Grand Piano"
V:4 treble 
V:2 bass 
V:3 bass 
V:1
 z3 z2[Q:1/4=78] [CE]/[CE]/ | [CA][CA][CA] [CA][DB][Ec] | FFF [FA]2 [EG]/[DF]/ | [CE][EA]B cdc | %4
 cB[=Dc] B2 c/d/ | [Ee][Ee][Ee] A2 B/c/ | [Fd][Fd][Fd] [DF]2 [EG]/[DF]/ | [CE][EA]B c[_Ge][Fd] | %8
[M:5/8] [Ec][G,E][DEB] [CEA]2 |[M:1/8] [_Gc] |[M:3/4] [Fd]>d dd [Fe][Fd] | [Ec]6 | %12
 c>B A=D- [DB][Dc] | B6 | [Ee][Ee] [Ee] A2 B/c/ | [Fd][Fd] [Fd] [DF]2 [EG]/[DF]/ | %16
 [CE][EA] Bc [_Ge][Fd] | [Ec][G,E] [DEB] [CEA]3 |] %18
V:2
 z3 z2 [A,,A,]/[A,,A,]/ | [A,,E,][A,,E,][A,,E,] [A,,E,][A,,E,][A,,A,] | %2
 [D,A,D][D,A,D][D,A,D] [D,A,]2 [D,A,]/[D,A,]/ | %3
 [A,,A,][C,A,][E,G,E][K:treble] [A,E][A,F][K:bass][A,E] | %4
 [F,A,=D][F,A,D][B,,A,] [E,G,E]2 [A,E]/[A,B,E]/ | [A,C][A,C][C,C] [F,CF]2 [G,B,E]/[A,E]/ | %6
 [D,A,][D,A,][D,A,] [D,A,]2 [D,A,]/[D,A,]/ | [A,,A,][C,A,][E,G,D] [A,E][C,A,][D,A,] | %8
[M:5/8] [E,A,]E,E, A,,2 |[M:1/8] A, |[M:3/4] z z/[K:treble] F/ FF[K:bass] [D,A,][D,A,] | %11
 A,>E, C, A,,2 [A,E] | [F,=D]->[F,-B,D-] [F,B,D]2 F,[B,,A,] | [E,E]2 z2 z2 | %14
 [A,C][A,C] [C,A,] [F,CF]2 [G,B,E]/[A,E]/ | [D,A,][D,A,] [D,A,] [D,A,]2 [D,A,]/[D,A,]/ | %16
 [A,,A,][C,A,] [E,G,E][A,E] [C,A,][D,A,] | [E,A,]E, E, A,,3 |] %18
V:3
 x6 | x6 | x6 | x3[K:treble] x2[K:bass] x | x6 | x6 | x6 | x6 |[M:5/8] x5 |[M:1/8] x | %10
[M:3/4] [D,A,]4[K:treble][K:bass] z2 | x6 | A,2 z .B,,3 | %13
 G,->[E,G,-] [E,G,-] [E,G,]2 [A,E]/[A,B,E]/ | x6 | x6 | x6 | x6 |] %18
V:4
 x6 | x6 | x6 | x6 | x6 | x6 | x6 | x6 |[M:5/8] x5 |[M:1/8] x |[M:3/4] x6 | z z/ A,/ A, A,2 c | %12
 z2 z [B,A] z2 | z z/ E/ E E2 c/d/ | x6 | x6 | x6 | x6 |] %18

